public/icons/python.svg

<svg width="54" height="52" viewBox="0 0 54 52" fill="none" xmlns="http://www.w3.org/2000/svg">
<path d="M12.8114 37.799V30.7874C12.8472 28.897 14.2732 25.075 19.6907 24.91C25.1082 24.745 31.5504 24.8413 34.0943 24.91C35.4792 25.0049 38.0548 23.7689 39.4144 20.7855V5.83426C38.5726 4.32194 35.6422 1.25607 30.6547 1.09109C25.6671 0.926114 21.8405 1.02235 20.5506 1.09109C18.6516 1.6754 14.7892 3.44205 14.5312 5.83426C14.2732 8.22646 14.4237 11.093 14.5312 12.2272H27V13.6708H8.83423C6.32613 13.9458 1.26694 16.1249 1.09496 22.6416C0.922977 29.1582 1.0233 30.0313 1.09496 29.6532C1.34577 32.0248 2.94378 36.9742 7.32937 37.799H12.8114Z" fill="#3970A2" stroke="#F9F9F9" stroke-width="0.834541"/>
<path d="M41.5636 14.0833V21.0949C41.5278 22.9853 40.1018 26.8073 34.6843 26.9723C29.2668 27.1373 22.8246 27.041 20.2807 26.9723C18.8958 26.8774 16.3202 28.1134 14.9606 31.0968V46.0481C15.8024 47.5604 18.7328 50.6263 23.7203 50.7912C28.7079 50.9562 32.5345 50.86 33.8244 50.7912C35.7234 50.2069 39.5858 48.4403 39.8438 46.0481C40.1018 43.6559 39.9513 40.7893 39.8438 39.6551H27.375V38.2115H45.5408C48.0489 37.9366 53.1081 35.7575 53.28 29.2408C53.452 22.7241 53.3517 21.8511 53.28 22.2291C53.0292 19.8576 51.4312 14.9082 47.0456 14.0833H41.5636Z" fill="#F3BA2F" stroke="#F9F9F9" stroke-width="0.834541"/>
<ellipse cx="20.0133" cy="6.96887" rx="2.47227" ry="2.37158" fill="white" stroke="#3970A2" stroke-width="1.66908"/>
<ellipse cx="33.9879" cy="44.5023" rx="2.47227" ry="2.37158" fill="white" stroke="#F3BA2F" stroke-width="1.66908"/>
</svg>

<svg xmlns="http://www.w3.org/2000/svg" width="54" height="52" fill="none"><path fill="#3970A2" stroke="#F9F9F9" stroke-width=".835" d="M12.811 37.799v-7.012c.036-1.89 1.462-5.712 6.88-5.877 5.417-.165 11.86-.069 14.403 0 1.385.095 3.96-1.141 5.32-4.125V5.835c-.841-1.513-3.772-4.579-8.76-4.744-4.987-.165-8.814-.069-10.103 0-1.9.584-5.762 2.351-6.02 4.743-.258 2.392-.107 5.259 0 6.393H27v1.444H8.834c-2.508.275-7.567 2.454-7.739 8.97-.172 6.517-.072 7.39 0 7.012.25 2.372 1.849 7.321 6.234 8.146h5.482Z"/><path fill="#F3BA2F" stroke="#F9F9F9" stroke-width=".835" d="M41.564 14.083v7.012c-.036 1.89-1.462 5.712-6.88 5.877-5.417.165-11.86.069-14.403 0-1.385-.095-3.96 1.141-5.32 4.125v14.951c.841 1.512 3.772 4.578 8.76 4.743 4.987.165 8.814.069 10.103 0 1.9-.584 5.762-2.35 6.02-4.743.258-2.392.107-5.259 0-6.393H27.375v-1.444h18.166c2.508-.274 7.567-2.453 7.739-8.97.172-6.517.072-7.39 0-7.012-.25-2.371-1.849-7.32-6.234-8.146h-5.482Z"/><ellipse cx="20.013" cy="6.969" fill="#fff" stroke="#3970A2" stroke-width="1.669" rx="2.472" ry="2.372"/><ellipse cx="33.988" cy="44.502" fill="#fff" stroke="#F3BA2F" stroke-width="1.669" rx="2.472" ry="2.372"/></svg>
